X: 3191
T: The THACK COTTAGE
Q: "Strathspey."
R: Strathspey.
%R: strathspey
B: James Kerr "Merry Melodies" v.3 p.22 #191
Z: 2016 John Chambers <jc:trillian.mit.edu>
M: C
L: 1/8
K: Gm
|:\
g2d>c (B<G) G>B | A>fc>f (A<F) F>A |\
G>AB>c d>ed>c | (B<g) ^f>a g2d2 :|
|:\
g>ab>g a>bg>d | f>ga>f g>af>d |\
g>ab>g a>bg>d |[1 c<A d>^F G3 d :|[2 c<A d>^F G2-Gz |]

%%sep 1 1 500
%%sep 1 1 500

